!!!COM: Bach, Johann Sebastian
!!!OTL@@DE: 281. Wo soll ich fliehen hin
!!!OTL@EN: Whither am I to flee?
!!!SCA: BWV 89.6
**harm	**root	**kern	**kern	**kern	**kern
*staff2	*	*staff2	*staff2	*staff1	*staff1
*Iorgan	*Iorgan	*Iorgan	*Iorgan	*Iorgan	*Iorgan
!	!	!bass	!tenor	!alto	!sprno
*	*	*clefF4	*clefF4	*clefG2	*clefG2
*k[f#]	*k[f#]	*k[f#]	*k[f#]	*k[f#]	*k[f#]
*e:	*e:	*e:	*e:	*e:	*e:
*met(c)	*met(c)	*met(c)	*met(c)	*met(c)	*met(c)
*M4/4	*M4/4	*M4/4	*M4/4	*M4/4	*M4/4
*MM60	*MM60	*MM60	*MM60	*MM60	*MM60
i	4GG	4EE	4G	4B	4e
=1	=1	=1	=1	=1	=1
i	4GG	4E	4G	4B	4e
V	4DD	4D#	4F#	4B	4f#
i	4GG	4E	8EL	4B	4g
.	.	.	8GJ	.	.
ivb	4CC	4C	4c	4e	4a
=2	=2	=2	=2	=2	=2
V;	2.DD;	2.BB;	2.F#;	2.d#;	2.b;
V7c	4DD	4AA	4F#	4d#	4b
=3	=3	=3	=3	=3	=3
ib	4GG	4GG	4G	4e	4b
viiob	4FF#	4FF#	4A	8eL	4a
.	.	.	.	8d#J	.
i	4GG	4EE	4B	4e	4g
iiob	4AA	4AA	4c	4f#	4a
=4	=4	=4	=4	=4	=4
V;	2.DD;	2.BB;	2.B;	2.d;	2.f##;
*G:	*G:	*G:	*G:	*G:	*G:
V/VI	4DD	4BB	4B	4d	4f##
=5	=5	=5	=5	=5	=5
vi	4GG	4E	4B	4e	4g
V	4FF	4D	4d	4f#	4a
I	4BB-	8GL	4d	4g	4b
.	.	8F#	.	.	.
vi	4GG	8E	4e	4g	4b
.	.	8DJ	.	.	.
=6	=6	=6	=6	=6	=6
iv7b	4EE-	4C	4e	4g	2a
V	4FF	4D	4d	4f#	.
I;	4BB-;	4GG;	4d;	4g;	4b;
Vb/VI	4DD	4D#	4B	4f#	4b
=7	=7	=7	=7	=7	=7
!!linebreak: 2
vi	4GG	(4E	4B	4e	4g
V	4FF	8DL	4d	8f#L	4a
.	.	8CJ)	.	8eJ	.
Ib	4BB-	8BBL	4G	4d	4b
.	.	8AA	.	.	.
I	4BB-	8GG	4G	4d	4b
.	.	8BBJ	.	.	.
=8	=8	=8	=8	=8	=8
ii7	4CC	8CL	4G	4e	2a
.	.	8AAJ	.	.	.
V	4FF	4D	4F#	4d	.
I;	4BB-;	4GG;	4B;	4d;	4g;
I	4BB-	4G	4d	4g	4b
=9	=9	=9	=9	=9	=9
Vb	4FF	4F#	4d	4a	4dd
I	4BB-	4G	8dL	4g	4b
.	.	.	8eJ	.	.
Vb/VI	4DD	4D#	8f#L	4f#	4b
.	.	.	8F#J	.	.
vi	4GG	4E	4G	4e	4b
=10	=10	=10	=10	=10	=10
V7b/V	4CC	4C#	4G	4e	2a
Vc	8FF	4AA	8F#L	8dL	.
V/V	8CC	.	8EJ	8c#J	.
V;	4FF;	4D;	4F#;	4d;	4a;
*e:	*e:	*e:	*e:	*e:	*e:
ivb	4CC	4C	4E	4e	4a
=11	=11	=11	=11	=11	=11
V	4DD	8BBL	4F#	4d#	4b
.	.	8AAJ	.	.	.
V7c	4DD	8GGL	4B	4d#	4a
.	.	8FF#J	.	.	.
i	4GG	8EEL	4B	4e	4g
.	.	8DJ	.	.	.
ivb	8CC	8CL	8AL	4e	8aL
ic	8GG	8BBJ	8BJ	.	8gJ
=12	=12	=12	=12	=12	=12
iio7	4AA	4AA	4c	4e	2f#
V7	4DD	4BB	8BL	4d#	.
.	.	.	8AJ	.	.
I;	4GG;	4EE;	4G#;	4B;	4e;
==	==	==	==	==	==
*-	*-	*-	*-	*-	*-
!!!ENC: Craig Stuart Sapp
!!!END: 2004/12/06/
!!chor2scor: -l 2 -s 0.6 -o %b.pmx
